cssgg/shape-rhombus.svg

<svg
  width="24"
  height="24"
  viewBox="0 0 24 24"
  fill="none"
  xmlns="http://www.w3.org/2000/svg"
>
  <path
    fill-rule="evenodd"
    clip-rule="evenodd"
    d="M12 6.34315L6.34317 12L12 17.6569L17.6569 12L12 6.34315ZM2.10052 12L12 21.8995L21.8995 12L12 2.10051L2.10052 12Z"
    fill="currentColor"
  />
</svg>

<svg viewBox="0 0 24 24" xmlns="http://www.w3.org/2000/svg"><path fill-rule="evenodd" d="M12 6.34l-5.66 5.65 5.65 5.65 5.65-5.66 -5.66-5.66Zm-9.9 5.65l9.89 9.89 9.89-9.9 -9.9-9.9 -9.9 9.89Z"/></svg>
